X: 15446
T: Glen Of Aherlow, The
R: reel
M: 4/4
K: Edorian
|:B2AF DFAF|EGFD ED[BB,][AA,]|B2AF DFAF|DFAF FE~E2|
B2AF DFAF|EGFD ED[BB,][AA,]|BE~EE DEFA|dBAF FE~EE:|
|:eBB2 egfe|d2fd Adfd|eB~BB egfe|dBAF ~FEE2|
eB~BB egfe|fdd2 Adfd|BA(3Bcd egfe|dBAF ~FEE2:|

